web/ui/src/components/workflow/workflow-viewer/svgs/shape/cron.svg

<svg height="200" viewBox="0 0 200 200" width="200" xmlns="http://www.w3.org/2000/svg"><g fill="none" fill-rule="evenodd"><rect fill="#fff" height="198" rx="51" stroke="#2962ff" stroke-width="2" width="198" x="1" y="1"/><g fill-rule="nonzero" transform="translate(40 40)"><path d="m0 0h120v120h-120z" fill="#2f54eb" opacity="0"/><path d="m60.2793182 33.1036364c-19.8031862 0-35.9142533 16.2409091-35.9142533 36.2072727s16.1110671 36.2086359 35.9142533 36.2086359c19.8031865 0 35.9142533-16.2409088 35.9142533-36.2086359 0-19.9650001-16.1110668-36.2072727-35.9142533-36.2072727zm6.2590735 39.7663634-.0203834-.040909c-1.2311596 2.2131818-3.5507945 3.7227274-6.2386901 3.7227274-3.9611808 0-7.1832107-3.2468184-7.1832107-7.2409091-.0083791-2.4191062 1.1943395-4.6807897 3.2016465-6.0204546l-.0203834-.040909 23.6828334-13.6554547-13.4218123 23.2772728zm32.7303605-35.5540907 4.5441468-4.5804547c.802474-.8087268.802474-2.1162731 0-2.9249999l-4.3525422-4.3881818c-.3837706-.3883975-.9062453-.6068755-1.4513007-.6068755-.5450551 0-1.0675301.218478-1.4513004.6068755l-4.5427883 4.5804545c-7.411417-6.0886363-16.5703738-10.0949999-26.6044591-11.1190908v-8.5390909h6.1557973c1.0909363-.0025287 2.1361893-.43983996 2.905814-1.21572977.7696246-.77588978 1.2005767-1.82680079 1.1980509-2.92154305v-2.06863629c.002887-1.09474248-.427719-2.14579765-1.1970891-2.92194337-.7693699-.77614571-1.8144803-1.21380357-2.9054169-1.21669302h-22.5753335c-1.0911724.00252832-2.1366319.4400269-2.9062955 1.21621183-.7696639.77618492-1.2004564 1.82744638-1.1975696 2.92242456v2.06863629c-.0025256 1.09474226.4284262 2.14565327 1.1980509 2.92154305.7696246.77588981 1.8148779 1.21320107 2.9058142 1.21572977h6.1557973v8.5363636c-10.0340856 1.0281818-19.1930424 5.0331818-26.6044592 11.1190909l-4.5427882-4.5804545c-.3837703-.3883975-.9062453-.6068755-1.4513005-.6068755-.5450553 0-1.0675303.218478-1.4513006.6068755l-4.3525427 4.3895455c-.8033762.8088847-.8033762 2.1174786 0 2.9263634l4.544147 4.5804547c-7.3201077 9.0430261-11.30761143 20.3431214-11.2898249 31.9936363 0 27.994091 22.5129441 50.6904546 50.279259 50.6904546s50.2792738-22.6963636 50.2792738-50.6904546c.018885-11.6507061-3.968747-22.9511651-11.2898398-31.9936363zm-38.989434 76.2122729c-24.1937781 0-43.8855352-19.8409093-43.8855352-44.2172729 0-24.375 19.6917568-44.2159091 43.8855352-44.2159091s43.8855348 19.8409091 43.8855348 44.2159091c0 24.3763636-19.6917564 44.2172729-43.8855348 44.2172729z" fill="#2962ff"/></g></g></svg>

<?xml version="1.0" encoding="UTF-8"?>
<svg width="200px" height="200px" viewBox="0 0 200 200" version="1.1" xmlns="http://www.w3.org/2000/svg" xmlns:xlink="http://www.w3.org/1999/xlink">
    <title>node-version</title>
    <g id="页面-1" stroke="none" stroke-width="1" fill="none" fill-rule="evenodd">
        <g id="节点" transform="translate(-3288.000000, -83.000000)">
            <g id="node-version备份-3" transform="translate(3288.000000, 83.000000)">
                <rect id="矩形备份-39" stroke="#2962FF" stroke-width="2" fill="#FFFFFF" x="1" y="1" width="198" height="198" rx="51"></rect>
                <g id="cron" transform="translate(40.000000, 40.000000)" fill-rule="nonzero">
                    <rect id="矩形备份-32" fill="#2F54EB" opacity="0" x="0" y="0" width="120" height="120"></rect>
                    <path d="M60.2793182,33.1036364 C40.476132,33.1036364 24.3650649,49.3445455 24.3650649,69.3109091 C24.3650649,89.2772727 40.476132,105.519545 60.2793182,105.519545 C80.0825047,105.519545 96.1935715,89.2786362 96.1935715,69.3109091 C96.1935715,49.345909 80.0825047,33.1036364 60.2793182,33.1036364 Z M66.5383917,72.8699998 L66.5180083,72.8290908 C65.2868487,75.0422726 62.9672138,76.5518182 60.2793182,76.5518182 C56.3181374,76.5518182 53.0961075,73.3049998 53.0961075,69.3109091 C53.0877284,66.8918029 54.290447,64.6301194 56.297754,63.2904545 L56.2773706,63.2495455 L79.960204,49.5940908 L66.5383917,72.8713636 L66.5383917,72.8699998 Z M99.2687522,37.3159091 L103.812899,32.7354544 C104.615373,31.9267276 104.615373,30.6191813 103.812899,29.8104545 L99.4603568,25.4222727 C99.0765862,25.0338752 98.5541115,24.8153972 98.0090561,24.8153972 C97.464001,24.8153972 96.941526,25.0338752 96.5577557,25.4222727 L92.0149674,30.0027272 C84.6035504,23.9140909 75.4445936,19.9077273 65.4105083,18.8836364 L65.4105083,10.3445455 L71.5663056,10.3445455 C72.6572419,10.3420168 73.7024949,9.90470554 74.4721196,9.12881573 C75.2417442,8.35292595 75.6726963,7.30201494 75.6701705,6.20727268 L75.6701705,4.13863639 C75.6730575,3.04389391 75.2424515,1.99283874 74.4730814,1.21669302 C73.7037115,0.440547311 72.6586011,0.00288945342 71.5676645,0 L48.992331,0 C47.9011586,0.00252831973 46.8556991,0.440026901 46.0860355,1.21621183 C45.3163716,1.99239675 44.8855791,3.04365821 44.8884659,4.13863639 L44.8884659,6.20727268 C44.8859403,7.30201494 45.3168921,8.35292595 46.0865168,9.12881573 C46.8561414,9.90470554 47.9013947,10.3420168 48.992331,10.3445455 L55.1481283,10.3445455 L55.1481283,18.8809091 C45.1140427,19.9090909 35.9550859,23.9140909 28.5436691,30 L24.0008809,25.4195455 C23.6171106,25.031148 23.0946356,24.81267 22.5495804,24.81267 C22.0045251,24.81267 21.4820501,25.031148 21.0982798,25.4195455 L16.7457371,29.809091 C15.9423609,30.6179757 15.9423609,31.9265696 16.7457371,32.7354544 L21.2898841,37.3159091 C13.9697764,46.3589352 9.98227267,57.6590305 10.0000592,69.3095454 C10.0000592,97.3036364 32.5130033,120 60.2793182,120 C88.0456331,120 110.558592,97.3036364 110.558592,69.3095454 C110.577477,57.6588393 106.589845,46.3583803 99.2687522,37.3159091 Z M60.2793182,113.528182 C36.0855401,113.528182 16.393783,93.6872727 16.393783,69.3109091 C16.393783,44.9359091 36.0855398,25.095 60.2793182,25.095 C84.4730966,25.095 104.164853,44.9359091 104.164853,69.3109091 C104.164853,93.6872727 84.4730966,113.528182 60.2793182,113.528182 L60.2793182,113.528182 Z" id="形状备份-7" fill="#2962FF"></path>
                </g>
            </g>
        </g>
    </g>
</svg>
